Lüv/actions/16/view-list-tree.svg

<?xml version="1.0" encoding="UTF-8" standalone="no"?>
<!-- Created with Inkscape (http://www.inkscape.org/) -->

<svg
   xmlns:dc="http://purl.org/dc/elements/1.1/"
   xmlns:cc="http://creativecommons.org/ns#"
   xmlns:rdf="http://www.w3.org/1999/02/22-rdf-syntax-ns#"
   xmlns:svg="http://www.w3.org/2000/svg"
   xmlns="http://www.w3.org/2000/svg"
   xmlns:sodipodi="http://sodipodi.sourceforge.net/DTD/sodipodi-0.dtd"
   xmlns:inkscape="http://www.inkscape.org/namespaces/inkscape"
   width="16"
   height="16"
   id="svg2"
   version="1.1"
   inkscape:version="0.91 r13725"
   viewBox="0 0 16 16"
   sodipodi:docname="view-list-tree.svg">
  <defs
     id="view-list-tree">
    <style
       type="text/css"
       id="current-color-scheme">
      .ColorScheme-Text {
        color:#455a64;
      }
      </style>
  </defs>
  <sodipodi:namedview
     id="base"
     pagecolor="#ffffff"
     bordercolor="#000000"
     borderopacity="1"
     inkscape:pageopacity="0.0"
     inkscape:pageshadow="2"
     inkscape:zoom="48.375"
     inkscape:cx="-6.3565891"
     inkscape:cy="8"
     inkscape:document-units="px"
     inkscape:current-layer="layer1"
     showgrid="true"
     units="px"
     inkscape:showpageshadow="false"
     borderlayer="true"
     inkscape:window-width="2560"
     inkscape:window-height="959"
     inkscape:window-x="0"
     inkscape:window-y="34"
     inkscape:window-maximized="1">
    <inkscape:grid
       type="xygrid"
       id="grid4137" />
    <sodipodi:guide
       position="2,14.000017"
       orientation="12,0"
       id="guide4161" />
    <sodipodi:guide
       position="2,2.0000174"
       orientation="0,12"
       id="guide4163" />
    <sodipodi:guide
       position="14,2.0000174"
       orientation="-12,0"
       id="guide4165" />
    <sodipodi:guide
       position="14,14.000017"
       orientation="0,-12"
       id="guide4167" />
  </sodipodi:namedview>
  <metadata
     id="metadata7">
    <rdf:RDF>
      <cc:Work
         rdf:about="">
        <dc:format>image/svg+xml</dc:format>
        <dc:type
           rdf:resource="http://purl.org/dc/dcmitype/StillImage" />
        <dc:title></dc:title>
        <cc:license
           rdf:resource="https://creativecommons.org/licenses/by-sa/4.0/" />
      </cc:Work>
    </rdf:RDF>
  </metadata>
  <g
     inkscape:label="Capa 1"
     inkscape:groupmode="layer"
     id="layer1"
     transform="translate(0,-1036.3622)">
    <path
       style="color:#455a64;fill:currentColor;fill-opacity:1;stroke:none"
       d="m 2,2 0,5 2,0 0,4 0,1 1,0 4,0 0,2 5,0 L 14,9 9,9 9,11 5,11 5,7 7,7 7,5 9,5 9,7 14,7 14,2 9,2 9,4 7,4 7,2 2,2 Z M 3,3 6,3 6,4 6,5 6,6 3,6 3,3 Z m 7,7 3,0 0,3 -3,0 0,-3 z"
       transform="translate(0,1036.3622)"
       id="icon"
       inkscape:connector-curvature="0"
       class="ColorScheme-Text" />
  </g>
</svg>

<?xml version="1.0" encoding="UTF-8" standalone="no"?>
<!-- Created with Inkscape (http://www.inkscape.org/) -->

<svg
   xmlns:dc="http://purl.org/dc/elements/1.1/"
   xmlns:cc="http://creativecommons.org/ns#"
   xmlns:rdf="http://www.w3.org/1999/02/22-rdf-syntax-ns#"
   xmlns:svg="http://www.w3.org/2000/svg"
   xmlns="http://www.w3.org/2000/svg"
   xmlns:sodipodi="http://sodipodi.sourceforge.net/DTD/sodipodi-0.dtd"
   xmlns:inkscape="http://www.inkscape.org/namespaces/inkscape"
   width="16"
   height="16"
   id="svg2"
   version="1.1"
   inkscape:version="0.91 r13725"
   viewBox="0 0 16 16"
   sodipodi:docname="view-list-tree.svg">
  <defs
     id="defs4" />
  <sodipodi:namedview
     id="base"
     pagecolor="#ffffff"
     bordercolor="#000000"
     borderopacity="1"
     inkscape:pageopacity="0.0"
     inkscape:pageshadow="2"
     inkscape:zoom="48.375"
     inkscape:cx="8"
     inkscape:cy="8"
     inkscape:document-units="px"
     inkscape:current-layer="layer1"
     showgrid="true"
     units="px"
     inkscape:showpageshadow="false"
     borderlayer="true"
     inkscape:window-width="2560"
     inkscape:window-height="959"
     inkscape:window-x="0"
     inkscape:window-y="34"
     inkscape:window-maximized="1">
    <inkscape:grid
       type="xygrid"
       id="grid4137" />
    <sodipodi:guide
       position="2,14.000017"
       orientation="12,0"
       id="guide4161" />
    <sodipodi:guide
       position="2,2.0000174"
       orientation="0,12"
       id="guide4163" />
    <sodipodi:guide
       position="14,2.0000174"
       orientation="-12,0"
       id="guide4165" />
    <sodipodi:guide
       position="14,14.000017"
       orientation="0,-12"
       id="guide4167" />
  </sodipodi:namedview>
  <metadata
     id="metadata7">
    <rdf:RDF>
      <cc:Work
         rdf:about="">
        <dc:format>image/svg+xml</dc:format>
        <dc:type
           rdf:resource="http://purl.org/dc/dcmitype/StillImage" />
        <dc:title></dc:title>
      </cc:Work>
    </rdf:RDF>
  </metadata>
  <g
     inkscape:label="Capa 1"
     inkscape:groupmode="layer"
     id="layer1"
     transform="translate(0,-1036.3622)">
    <path
       style="opacity:1;fill:#455a64;fill-opacity:1;stroke:none;stroke-width:2;stroke-linecap:round;stroke-linejoin:round;stroke-miterlimit:4;stroke-dasharray:none;stroke-opacity:1"
       d="M 2 2 L 2 7 L 4 7 L 4 11 L 4 12 L 5 12 L 9 12 L 9 14 L 14 14 L 14 9 L 9 9 L 9 11 L 5 11 L 5 7 L 7 7 L 7 5 L 9 5 L 9 7 L 14 7 L 14 2 L 9 2 L 9 4 L 7 4 L 7 2 L 2 2 z M 3 3 L 6 3 L 6 4 L 6 5 L 6 6 L 3 6 L 3 3 z M 10 10 L 13 10 L 13 13 L 10 13 L 10 10 z "
       transform="translate(0,1036.3622)"
       id="rect4146" />
  </g>
</svg>
